X:1056
T:Älvdalspolska efter Simon Simonsson
S:Efter Kalle Almlöf
Z:[[http://www.bluerose.karenlmyers.org/IncipitsPolskaAlvdalen3.html|Karen Myers (#1056)]]
Z:Upptecknad 1991
M:3/4
L:1/8
R:Polska
O:Älvdalen, Dalarna
K:Dm
A>^cd2 d2 | A>fa2 a2 | ^g>ef2 (fg) | (3f2 e2 e^cA2 |
A>^cd2 d2 | A>fa2 a2 | ^g>ef2 f2 | (e/f/)e/c/ d4 :|
|: {A}d>fa2 g2 | efd2 ^c2 | {A}d>fa2 g2 | efd2 ^c2 |
AcB2 B2 |1 (AG)A4 :|2 AG A2- A^c | (3^c=Bc d4 |]
